out/images/facebookLogo.svg

<svg fill="none" height="25" viewBox="0 0 25 25" width="25" xmlns="http://www.w3.org/2000/svg"><path d="m24.6094 12.625c0-6.68945-5.4199-12.109375-12.1094-12.109375-6.68945 0-12.109375 5.419925-12.109375 12.109375 0 6.0547 4.394535 11.084 10.205075 11.9629v-8.4473h-3.07617v-3.5156h3.07617v-2.63672c0-3.02734 1.8066-4.73633 4.541-4.73633 1.3672 0 2.7344.24414 2.7344.24414v2.97852h-1.5137c-1.5136 0-2.0019.92773-2.0019 1.90429v2.2461h3.3691l-.5371 3.5156h-2.832v8.4473c5.8105-.8789 10.2539-5.9082 10.2539-11.9629z" fill="#fff"/></svg>

<svg width="25" height="25" viewBox="0 0 25 25" fill="none" xmlns="http://www.w3.org/2000/svg">
<path d="M24.6094 12.625C24.6094 5.93555 19.1895 0.515625 12.5 0.515625C5.81055 0.515625 0.390625 5.93555 0.390625 12.625C0.390625 18.6797 4.78516 23.709 10.5957 24.5879V16.1406H7.51953V12.625H10.5957V9.98828C10.5957 6.96094 12.4023 5.25195 15.1367 5.25195C16.5039 5.25195 17.8711 5.49609 17.8711 5.49609V8.47461H16.3574C14.8438 8.47461 14.3555 9.40234 14.3555 10.3789V12.625H17.7246L17.1875 16.1406H14.3555V24.5879C20.166 23.709 24.6094 18.6797 24.6094 12.625Z" fill="white"/>
</svg>
